release/img/icons/Telegram.svg

<svg width="20" height="20" viewBox="0 0 20 20" fill="none" xmlns="http://www.w3.org/2000/svg">
<path d="M10 0C4.47581 0 0 4.47581 0 10C0 15.5242 4.47581 20 10 20C15.5242 20 20 15.5242 20 10C20 4.47581 15.5242 0 10 0ZM14.9113 6.85081L13.2702 14.5847C13.1492 15.1331 12.8226 15.2661 12.3669 15.0081L9.86693 13.1653L8.66129 14.3266C8.52823 14.4597 8.41532 14.5726 8.15726 14.5726L8.33468 12.0282L12.9677 7.84274C13.1694 7.66532 12.9234 7.56452 12.6573 7.74194L6.93145 11.3468L4.46371 10.5766C3.92742 10.4073 3.91532 10.0403 4.57661 9.78226L14.2177 6.06452C14.6653 5.90323 15.0565 6.17339 14.9113 6.85081V6.85081Z" fill="white"/>
</svg>

<svg width="20" height="20" fill="none" xmlns="http://www.w3.org/2000/svg"><path d="M10 0C4.476 0 0 4.476 0 10s4.476 10 10 10 10-4.476 10-10S15.524 0 10 0zm4.911 6.85l-1.64 7.735c-.122.548-.448.681-.904.423l-2.5-1.843-1.206 1.162c-.133.133-.246.246-.504.246l.178-2.545 4.633-4.185c.201-.178-.045-.278-.31-.101L6.93 11.347l-2.467-.77c-.537-.17-.549-.537.113-.795l9.64-3.717c.448-.162.84.108.694.786z" fill="#fff"/></svg>
